webroot/img/new-desgin/social-media/la_facebook.svg

<svg width="81" height="80" viewBox="0 0 81 80" fill="none" xmlns="http://www.w3.org/2000/svg">
<g id="la:facebook">
<path id="Vector" d="M40.6973 10.002C24.1573 10.002 10.6973 23.462 10.6973 40.002C10.6973 56.542 24.1573 70.002 40.6973 70.002C57.2373 70.002 70.6973 56.542 70.6973 40.002C70.6973 23.462 57.2373 10.002 40.6973 10.002ZM40.6973 15.002C54.5348 15.002 65.6973 26.1645 65.6973 40.002C65.7034 45.9869 63.5573 51.7744 59.6506 56.3085C55.744 60.8425 50.3373 63.8206 44.4173 64.6995V47.292H51.5373L52.6548 40.0595H44.4173V36.1095C44.4173 33.1095 45.4048 30.442 48.2123 30.442H52.7248V24.132C51.9323 24.0245 50.2548 23.792 47.0848 23.792C40.4648 23.792 36.5848 27.287 36.5848 35.252V40.0595H29.7798V47.292H36.5848V64.637C30.7466 63.6761 25.4404 60.6707 21.614 56.1578C17.7876 51.645 15.6905 45.9186 15.6973 40.002C15.6973 26.1645 26.8598 15.002 40.6973 15.002Z" fill="url(#paint0_linear_421_9348)"/>
</g>
<defs>
<linearGradient id="paint0_linear_421_9348" x1="16.317" y1="15.4827" x2="70.325" y2="83.355" gradientUnits="userSpaceOnUse">
<stop stop-color="#007BC4"/>
<stop offset="1" stop-color="#0B4C97"/>
</linearGradient>
</defs>
</svg>

<svg xmlns="http://www.w3.org/2000/svg" width="81" height="80" fill="none"><path fill="url(#a)" d="M40.697 10.002c-16.54 0-30 13.46-30 30s13.46 30 30 30 30-13.46 30-30-13.46-30-30-30Zm0 5c13.838 0 25 11.162 25 25a24.942 24.942 0 0 1-21.28 24.697V47.293h7.12l1.118-7.233h-8.238v-3.95c0-3 .988-5.667 3.795-5.667h4.513v-6.31c-.793-.108-2.47-.34-5.64-.34-6.62 0-10.5 3.495-10.5 11.46v4.807H29.78v7.233h6.805v17.345a24.937 24.937 0 0 1-20.888-24.635c0-13.838 11.163-25 25-25Z"/><defs><linearGradient id="a" x1="16.317" x2="70.325" y1="15.483" y2="83.355" gradientUnits="userSpaceOnUse"><stop stop-color="#007BC4"/><stop offset="1" stop-color="#0B4C97"/></linearGradient></defs></svg>
